svg/fluentui-system-icons/ic_fluent_heart_pulse_32_regular.svg

<svg width="32" height="32" viewBox="0 0 32 32" fill="none" xmlns="http://www.w3.org/2000/svg">
<path d="M4.37417 5.98797C7.37362 3.13135 12.1042 3.18903 15.0331 6.11793L16 7.08485L16.8596 6.22528C19.8418 3.24311 24.6688 3.21727 27.6827 6.16735C29.9617 8.39807 30.5624 11.7028 29.4565 14.499H27.2417C28.5046 12.3 28.1755 9.44833 26.2837 7.59662C24.0532 5.41334 20.4808 5.43246 18.2738 7.63949L16.7071 9.20617C16.3166 9.5967 15.6834 9.5967 15.2929 9.20617L13.6189 7.53215C11.4576 5.37086 7.96682 5.3283 5.75348 7.43624C3.78366 9.31226 3.46882 12.2768 4.86091 14.499H2.61173C1.40375 11.6552 2.00759 8.24186 4.37417 5.98797ZM22.7077 19.499H25.4684L16.7245 28.6884C16.5348 28.8877 16.2714 29.0001 15.9963 28.9991C15.7211 28.998 15.4586 28.8837 15.2704 28.6829L6.66219 19.499H9.14297C9.22665 19.499 9.30967 19.4948 9.39181 19.4866L16.0055 26.5426L22.7077 19.499ZM12.8944 11.5518C12.7312 11.2253 12.4031 11.0138 12.0384 10.9998C11.6737 10.9858 11.3303 11.1716 11.1425 11.4845L8.43381 15.999H2.66699C2.11471 15.999 1.66699 16.4467 1.66699 16.999C1.66699 17.5513 2.11471 17.999 2.66699 17.999H9C9.35126 17.999 9.67677 17.8147 9.85749 17.5135L11.9203 14.0755L15.1059 20.4463C15.2621 20.7586 15.5699 20.9668 15.9179 20.9956C16.2659 21.0244 16.6037 20.8696 16.8091 20.5872L20.1805 15.9511L22.3598 17.7672C22.5395 17.917 22.7661 17.999 23 17.999H29C29.5523 17.999 30 17.5513 30 16.999C30 16.4467 29.5523 15.999 29 15.999H23.362L20.6402 13.7308C20.4276 13.5537 20.1512 13.4725 19.8767 13.5067C19.6021 13.5408 19.354 13.6871 19.1912 13.9109L16.159 18.0805L12.8944 11.5518Z" fill="#212121"/>
</svg>

<svg xmlns="http://www.w3.org/2000/svg" width="32" height="32"><path d="M4.374 5.988a7.631 7.631 0 0 1 10.66.13l.966.967.86-.86A7.694 7.694 0 0 1 29.456 14.5h-2.214a5.694 5.694 0 0 0-8.968-6.86l-1.567 1.567a1 1 0 0 1-1.414 0l-1.674-1.674A5.631 5.631 0 0 0 4.86 14.5H2.61a7.634 7.634 0 0 1 1.763-8.511Zm18.334 13.511h2.76l-8.744 9.19a1 1 0 0 1-1.454-.006l-8.608-9.184h2.481c.084 0 .167-.004.249-.012l6.614 7.056 6.702-7.044Zm-9.814-7.947a1 1 0 0 0-1.752-.067l-2.708 4.514H2.667a1 1 0 1 0 0 2H9a1 1 0 0 0 .857-.485l2.063-3.438 3.186 6.37a1 1 0 0 0 1.703.141l3.371-4.636 2.18 1.816A1 1 0 0 0 23 18h6a1 1 0 1 0 0-2h-5.638l-2.722-2.268a1 1 0 0 0-1.449.18l-3.032 4.17-3.265-6.53Z"/></svg>
